X: 3016
T: Short and Sweet
P: Miss Williams Fancy
C:William Campbell's 23rd Book
R:Jig (8x32)
B:RSCDS 30-8
Z:Anselm Lingnau <anselm@strathspey.org>
M:6/8
L:1/8
K:F
|:"F"cAF FGF|"Bb"f3 d3|"F"cAF "Dm"FG"G7"F|"C"EGG "C7"G2 A|
  "F"cAF "F7"FGF|"Bb"[f3B3F3] [d3B3F3]|"F"c>dc "C7"BAG|"F"AF"Bb"F "F"F3:|
|:"F"c3 cfa|"Bb"B3 Bdf|"F"A3 "D7"ABc|"Gm"BGG "C7"G2 A|
  "F"F3 "F7"FAc|"Bb"def "G7"fed|"F"c>dc "C7"BAG|"F"AF"Bb"F "F"F3:|
%%center Book30/3008-Short_and_Sweet-AL.abc

%%sep 1 1 500
%%sep 1 1 500

